icons/svg/seamark_big/small_craft_facility_boatyard.svg

<?xml version="1.0" encoding="UTF-8" standalone="no"?>
<svg
   xmlns:dc="http://purl.org/dc/elements/1.1/"
   xmlns:cc="http://creativecommons.org/ns#"
   xmlns:rdf="http://www.w3.org/1999/02/22-rdf-syntax-ns#"
   xmlns:svg="http://www.w3.org/2000/svg"
   xmlns="http://www.w3.org/2000/svg"
   xmlns:sodipodi="http://sodipodi.sourceforge.net/DTD/sodipodi-0.dtd"
   xmlns:inkscape="http://www.inkscape.org/namespaces/inkscape"
   width="1060"
   height="1060"
   id="svg2"
   version="1.1"
   inkscape:version="0.48.4 r9939"
   sodipodi:docname="small_craft_facility_toilets.svg">
  <defs
     id="defs13">
    <marker
       inkscape:stockid="TriangleOutM"
       orient="auto"
       refY="0.0"
       refX="0.0"
       id="TriangleOutM"
       style="overflow:visible">
      <path
         id="path4014"
         d="M 5.77,0.0 L -2.88,5.0 L -2.88,-5.0 L 5.77,0.0 z "
         style="fill-rule:evenodd;stroke:#000000;stroke-width:1.0pt"
         transform="scale(0.4)" />
    </marker>
    <marker
       inkscape:stockid="TriangleOutS"
       orient="auto"
       refY="0.0"
       refX="0.0"
       id="TriangleOutS"
       style="overflow:visible">
      <path
         id="path4017"
         d="M 5.77,0.0 L -2.88,5.0 L -2.88,-5.0 L 5.77,0.0 z "
         style="fill-rule:evenodd;stroke:#000000;stroke-width:1.0pt"
         transform="scale(0.2)" />
    </marker>
    <marker
       inkscape:stockid="Arrow2Send"
       orient="auto"
       refY="0.0"
       refX="0.0"
       id="Arrow2Send"
       style="overflow:visible;">
      <path
         id="path3902"
         style="fill-rule:evenodd;stroke-width:0.62500000;stroke-linejoin:round;"
         d="M 8.7185878,4.0337352 L -2.2072895,0.016013256 L 8.7185884,-4.0017078 C 6.9730900,-1.6296469 6.9831476,1.6157441 8.7185878,4.0337352 z "
         transform="scale(0.3) rotate(180) translate(-2.3,0)" />
    </marker>
    <marker
       inkscape:stockid="Arrow1Send"
       orient="auto"
       refY="0.0"
       refX="0.0"
       id="Arrow1Send"
       style="overflow:visible;">
      <path
         id="path3884"
         d="M 0.0,0.0 L 5.0,-5.0 L -12.5,0.0 L 5.0,5.0 L 0.0,0.0 z "
         style="fill-rule:evenodd;stroke:#000000;stroke-width:1.0pt;"
         transform="scale(0.2) rotate(180) translate(6,0)" />
    </marker>
    <marker
       inkscape:stockid="Arrow1Lend"
       orient="auto"
       refY="0.0"
       refX="0.0"
       id="Arrow1Lend"
       style="overflow:visible;">
      <path
         id="path3872"
         d="M 0.0,0.0 L 5.0,-5.0 L -12.5,0.0 L 5.0,5.0 L 0.0,0.0 z "
         style="fill-rule:evenodd;stroke:#000000;stroke-width:1.0pt;"
         transform="scale(0.8) rotate(180) translate(12.5,0)" />
    </marker>
    <inkscape:path-effect
       effect="gears"
       id="path-effect3774"
       is_visible="true"
       teeth="6"
       phi="-1.2" />
    <inkscape:path-effect
       effect="bend_path"
       id="path-effect3772"
       is_visible="false"
       bendpath="m 95.790098,316.51174 c 144.429032,-206.42506 223.313032,-11.7428 339.548092,0"
       prop_scale="1.19"
       scale_y_rel="false"
       vertical="false"
       bendpath-nodetypes="cc" />
  </defs>
  <sodipodi:namedview
     pagecolor="#ffffff"
     bordercolor="#666666"
     borderopacity="1"
     objecttolerance="10"
     gridtolerance="10"
     guidetolerance="10"
     inkscape:pageopacity="0"
     inkscape:pageshadow="2"
     inkscape:window-width="1920"
     inkscape:window-height="1004"
     id="namedview11"
     showgrid="false"
     inkscape:zoom="1.6275861"
     inkscape:cx="544.79785"
     inkscape:cy="551.05006"
     inkscape:window-x="1680"
     inkscape:window-y="0"
     inkscape:window-maximized="1"
     inkscape:current-layer="svg2"
     inkscape:snap-object-midpoints="true"
     inkscape:snap-center="true"
     inkscape:snap-global="false">
    <inkscape:grid
       type="xygrid"
       id="grid2989" />
  </sodipodi:namedview>
  <metadata
     id="metadata2975">image/svg+xmlen<rdf:RDF>
  <cc:Work
     rdf:about="">
    <dc:format>image/svg+xml</dc:format>
    <dc:type
       rdf:resource="http://purl.org/dc/dcmitype/StillImage" />
    <dc:title></dc:title>
  </cc:Work>
</rdf:RDF>
</metadata>
  <path
     style="fill:#930093;color:#000000;fill-opacity:1;fill-rule:nonzero;stroke:none;stroke-width:10;marker:none;visibility:visible;display:inline;overflow:visible;enable-background:accumulate"
     inkscape:connector-curvature="0"
     d="m 448.27455,411.16377 41.48794,41.48794 c 0,0 0,12.36689 -12.36689,24.74384 -12.37695,12.36688 -24.74384,12.36688 -24.74384,12.36688 L 411.16383,448.2745 c -5.86648,23.36526 2.08295,51.56056 19.34024,68.82791 15.95922,15.95922 33.03538,15.71772 49.72917,6.6916 2.81752,-1.52951 9.03618,-4.0049 16.1001,3.06908 36.6881,36.67804 105.98895,114.01888 107.32727,115.34714 11.07888,11.07888 28.6783,11.421 39.32449,0.77481 10.64619,-10.64618 10.30406,-28.25567 -0.77482,-39.32448 -1.34838,-1.34839 -80.34954,-72.12844 -116.4037,-108.18259 -6.70166,-6.70167 -4.05521,-11.6122 -2.67664,-14.04734 C 532.79,464.35447 533.434,446.85567 517.0924,430.51408 499.84517,413.24672 471.63982,405.2973 448.27455,411.16377 z m 184.36624,209.40189 c 0,6.67148 -5.4036,12.07507 -12.07508,12.07507 -6.67147,0 -12.07507,-5.40359 -12.07507,-12.07507 0,-6.67148 5.4036,-12.07507 12.07507,-12.07507 6.67148,0 12.07508,5.40359 12.07508,12.07507 z"
     id="path3" />
</svg>

<svg width="1060" height="1060" viewBox="0 0 1060 1060" fill="none" xmlns="http://www.w3.org/2000/svg">
<path d="M448.275 411.164L489.762 452.652C489.762 452.652 489.762 465.019 477.396 477.395C465.019 489.762 452.652 489.762 452.652 489.762L411.164 448.274C405.297 471.64 413.247 499.835 430.504 517.102C446.463 533.062 463.539 532.82 480.233 523.794C483.051 522.264 489.269 519.789 496.333 526.863C533.021 563.541 602.322 640.882 603.661 642.21C614.739 653.289 632.339 653.631 642.985 642.985C653.631 632.339 653.289 614.729 642.21 603.661C640.862 602.312 561.861 531.532 525.807 495.478C519.105 488.776 521.751 483.866 523.13 481.431C532.79 464.354 533.434 446.856 517.092 430.514C499.845 413.247 471.64 405.297 448.275 411.164ZM632.641 620.566C632.641 627.237 627.237 632.641 620.566 632.641C613.894 632.641 608.491 627.237 608.491 620.566C608.491 613.894 613.894 608.491 620.566 608.491C627.237 608.491 632.641 613.894 632.641 620.566Z" fill="#930093"/>
</svg>
